#define im_width 256
#define im_height 256
static char im_bits[] = {
0x00,0x00,0x00,0x00,0x00,0x00,0x00,0x00,0x00,0x00,0x00,0x00,0x00,0x00,0x00,
0x00,0x00,0x00,0x00,0x00,0x00,0x00,0x00,0x00,0x00,0x00,0x00,0x00,0x00,0x00,
0x00,0x00,0x00,0x00,0x00,0x00,0x00,0x00,0x00,0x00,0x00,0x00,0x00,0x00,0x00,
0x00,0x00,0x00,0x00,0x00,0x00,0x00,0x00,0x00,0x00,0x00,0x00,0x00,0x00,0x00,
0x00,0x00,0x00,0x00,0x00,0x00,0x00,0x00,0x00,0x00,0x00,0x00,0x00,0x00,0x00,
0x00,0x00,0x00,0x00,0x00,0x00,0x00,0x00,0x00,0x00,0x00,0x00,0x00,0x00,0x00,
0x00,0x00,0x00,0x00,0x00,0x00,0x00,0x00,0x00,0x00,0x00,0x00,0x00,0x00,0x00,
0x00,0x00,0x00,0x00,0x00,0x00,0x00,0x00,0x00,0x00,0x00,0x00,0x00,0x00,0x00,
0x00,0x00,0x00,0x00,0x00,0x00,0x00,0x00,0x00,0x00,0x00,0x00,0x00,0x00,0x00,
0x00,0x00,0x00,0x00,0x00,0x00,0x00,0x00,0x00,0x00,0x00,0x00,0x00,0x00,0x00,
0x00,0x00,0x00,0x00,0x00,0x00,0x00,0x00,0x00,0x00,0x00,0x00,0x00,0x00,0x00,
0x00,0x00,0x00,0x00,0x00,0x00,0x00,0x00,0x00,0x00,0x00,0x00,0x00,0x00,0x00,
0x00,0x00,0x00,0x00,0x00,0x00,0x00,0x00,0x00,0x00,0x00,0x00,0x00,0x00,0x00,
0x00,0x00,0x00,0x00,0x00,0x00,0x00,0x00,0x00,0x00,0x00,0x00,0x00,0x00,0x00,
0x00,0x00,0x00,0x00,0x00,0x00,0x00,0x00,0x00,0x00,0x00,0x00,0x00,0x00,0x00,
0x00,0x00,0x00,0x00,0x00,0x00,0x00,0x00,0x00,0x00,0x00,0x00,0x00,0x00,0x00,
0x00,0x00,0x00,0x00,0x00,0x00,0x00,0x00,0x00,0x00,0x00,0x00,0x00,0x00,0x00,
0x00,0x00,0x00,0x00,0x00,0x00,0x00,0x00,0x00,0x00,0x00,0x00,0x00,0x00,0x00,
0x40,0x92,0x24,0x01,0x00,0x00,0x00,0x00,0x00,0x00,0x00,0x00,0x00,0x00,0x00,
0x00,0x00,0x00,0x00,0x00,0x00,0x00,0x00,0x00,0x00,0x00,0x00,0x00,0x00,0x00,
0x00,0x40,0x92,0x24,0x49,0x4a,0x02,0x00,0x00,0x00,0x00,0x00,0x00,0x00,0x00,
0x00,0x00,0x00,0x00,0x00,0x00,0x00,0x00,0x00,0x00,0x00,0x00,0x00,0x00,0x00,
0x00,0x00,0x00,0x92,0x24,0x49,0x92,0x94,0x24,0x00,0x00,0x00,0x00,0x00,0x00,
0x00,0x00,0x00,0x00,0x00,0x00,0x00,0x00,0x00,0x00,0x00,0x00,0x00,0x00,0x00,
0x00,0x00,0x00,0x00,0x90,0x24,0x09,0x00,0x00,0x20,0x49,0x09,0x00,0x00,0x00,
0x00,0x00,0x00,0x00,0x00,0x00,0x00,0x00,0x00,0x00,0x00,0x00,0x00,0x00,0x00,
0x00,0x00,0x00,0x00,0x00,0x00,0x22,0x09,0x00,0x00,0x00,0x00,0x50,0x92,0x00,
0x00,0x00,0x00,0x00,0x00,0x00,0x00,0x00,0x00,0x00,0x00,0x00,0x00,0x00,0x00,
0x00,0x00,0x00,0x00,0x00,0x00,0x00,0x20,0x55,0x00,0x00,0x00,0x00,0x00,0x00,
0x25,0x09,0x00,0x00,0x00,0x00,0x00,0x00,0x00,0x00,0x00,0x00,0x00,0x00,0x00,
0x00,0x00,0x00,0x00,0x00,0x00,0x00,0x00,0x00,0x44,0x04,0x00,0x40,0x44,0x92,
0x04,0x04,0x50,0x22,0x00,0x00,0x00,0x00,0x00,0x00,0x00,0x00,0x00,0x00,0x00,
0x00,0x00,0x00,0x00,0x00,0x00,0x00,0x00,0x00,0x00,0x80,0xa8,0x00,0x40,0x04,
0x00,0x00,0x40,0x00,0x00,0x4a,0x02,0x00,0x00,0x00,0x00,0x00,0x00,0x00,0x00,
0x00,0x00,0x00,0x00,0x00,0x00,0x00,0x00,0x00,0x00,0x00,0x00,0x20,0x05,0x00,
0x08,0x00,0x00,0x00,0x00,0x00,0x00,0x90,0x04,0x00,0x00,0x00,0x00,0x00,0x00,
0x00,0x00,0x00,0x00,0x00,0x00,0x00,0x00,0x00,0x00,0x00,0x00,0x00,0x00,0xa4,
0x00,0x00,0x02,0x00,0x00,0x00,0x00,0x00,0x00,0x00,0x49,0x00,0x00,0x00,0x00,
0x00,0x00,0x00,0x00,0x00,0x00,0x00,0x00,0x00,0x00,0x00,0x00,0x00,0x00,0x00,
0x00,0x49,0x00,0x80,0x00,0x40,0x44,0x00,0x00,0x42,0x00,0x00,0x92,0x00,0x00,
0x00,0x00,0x00,0x00,0x00,0x00,0x00,0x00,0x00,0x00,0x00,0x00,0x00,0x00,0x00,
0x00,0x00,0x40,0x02,0x00,0x08,0x00,0x04,0x00,0x88,0x88,0x00,0x84,0x00,0x20,
0x01,0x00,0x00,0x00,0x00,0x00,0x00,0x00,0x00,0x00,0x00,0x00,0x00,0x00,0x00,
0x00,0x00,0x00,0x00,0x90,0x00,0x20,0x02,0x00,0x01,0x00,0x00,0x00,0x00,0x00,
0x40,0x40,0x0a,0x00,0x00,0x00,0x00,0x00,0x00,0x00,0x00,0x00,0x00,0x00,0x00,
0x00,0x00,0x00,0x00,0x00,0x00,0x24,0x08,0x08,0x00,0x40,0x00,0x00,0x02,0x00,
0x00,0x00,0x08,0x00,0x14,0x00,0x00,0x00,0x00,0x00,0x00,0x00,0x00,0x00,0x00,
0x00,0x00,0x00,0x00,0x00,0x00,0x00,0x00,0x09,0x00,0x02,0x00,0x10,0x80,0x88,
0x00,0x00,0x10,0x21,0x00,0x00,0xa0,0x00,0x00,0x00,0x00,0x00,0x00,0x00,0x00,
0x00,0x00,0x00,0x00,0x00,0x00,0x00,0x00,0x00,0x40,0x02,0x80,0x00,0x80,0x00,
0x00,0x00,0x00,0x11,0x04,0x00,0x00,0x08,0x20,0x05,0x00,0x00,0x00,0x00,0x00,
0x00,0x00,0x00,0x00,0x00,0x00,0x00,0x00,0x00,0x00,0x00,0x90,0x00,0x01,0x00,
0x20,0x00,0x20,0x00,0x40,0x00,0x01,0x00,0x02,0x02,0x81,0x08,0x00,0x00,0x00,
0x00,0x00,0x00,0x00,0x00,0x00,0x00,0x00,0x00,0x00,0x00,0x00,0x00,0x28,0x00,
0x10,0x00,0x01,0x00,0x00,0x00,0x00,0x00,0x00,0x00,0x80,0x00,0x00,0x12,0x00,
0x00,0x00,0x00,0x00,0x00,0x00,0x00,0x00,0x00,0x00,0x00,0x00,0x00,0x00,0x00,
0x02,0x20,0x00,0x00,0x00,0x08,0x04,0x10,0x08,0x00,0x00,0x22,0x20,0x00,0x00,
0x24,0x00,0x00,0x00,0x00,0x00,0x00,0x00,0x00,0x00,0x00,0x00,0x00,0x00,0x00,
0x00,0x00,0x25,0x08,0x00,0x20,0x00,0x00,0x01,0x02,0x02,0x20,0x80,0x00,0x00,
0x00,0x08,0xa0,0x00,0x00,0x00,0x00,0x00,0x00,0x00,0x00,0x00,0x00,0x00,0x00,
0x00,0x00,0x00,0x40,0x00,0x00,0x00,0x02,0x08,0x01,0x00,0x00,0x00,0x04,0x20,
0x00,0x04,0x40,0x00,0x80,0x02,0x00,0x00,0x00,0x00,0x00,0x00,0x00,0x00,0x00,
0x00,0x00,0x00,0x00,0x00,0xa0,0x00,0x00,0x22,0x00,0x00,0x40,0x80,0x00,0x00,
0x01,0x04,0x00,0x01,0x00,0x00,0x00,0x09,0x00,0x00,0x00,0x00,0x00,0x00,0x00,
0x00,0x00,0x00,0x00,0x00,0x00,0x00,0x08,0x00,0x01,0x00,0x00,0x02,0x00,0x00,
0x40,0x00,0x00,0x00,0x40,0x00,0x08,0x84,0x00,0x12,0x00,0x00,0x00,0x00,0x00,
0x00,0x00,0x00,0x00,0x00,0x00,0x00,0x00,0x00,0x14,0x22,0x80,0x00,0x20,0x80,
0x10,0x10,0x00,0x20,0x00,0x01,0x10,0x00,0x01,0x00,0x08,0x48,0x00,0x00,0x00,
0x00,0x00,0x00,0x00,0x00,0x00,0x00,0x00,0x00,0x00,0x00,0x02,0x00,0x10,0x00,
0x04,0x00,0x00,0x00,0x10,0x04,0x40,0x00,0x04,0x40,0x00,0x01,0x00,0x10,0x00,
0x00,0x00,0x00,0x00,0x00,0x00,0x00,0x00,0x00,0x00,0x00,0x00,0x80,0x84,0x00,
0x00,0x20,0x00,0x20,0x00,0x00,0x04,0x00,0x00,0x00,0x01,0x00,0x00,0x00,0x80,
0x40,0x01,0x00,0x00,0x00,0x00,0x00,0x00,0x00,0x00,0x00,0x00,0x00,0x00,0x40,
0x01,0x00,0x00,0x00,0x00,0x08,0x00,0x02,0x01,0x00,0x04,0x20,0x00,0x10,0x40,
0x20,0x02,0x40,0x02,0x00,0x00,0x00,0x00,0x00,0x00,0x00,0x00,0x00,0x00,0x00,
0x00,0x20,0x00,0x20,0x02,0x04,0x00,0x01,0x08,0x40,0x00,0x00,0x01,0x00,0x00,
0x04,0x00,0x00,0x00,0x00,0x05,0x00,0x00,0x00,0x00,0x00,0x00,0x00,0x00,0x00,
0x00,0x00,0x00,0x10,0x00,0x08,0x80,0x00,0x11,0x00,0x80,0x00,0x00,0x21,0x00,
0x04,0x00,0x01,0x08,0x00,0x20,0x00,0x08,0x00,0x00,0x00,0x00,0x00,0x00,0x00,
0x00,0x00,0x00,0x00,0x00,0x24,0x20,0x00,0x20,0x00,0x00,0x00,0x02,0x00,0x00,
0x00,0x40,0x00,0x40,0x00,0x00,0x08,0x00,0x04,0x54,0x00,0x00,0x00,0x00,0x00,
0x00,0x00,0x00,0x00,0x00,0x00,0x00,0x0a,0x04,0x00,0x00,0x00,0x00,0x00,0x00,
0x10,0x40,0x00,0x00,0x00,0x04,0x00,0x02,0x02,0x01,0x00,0x80,0x00,0x00,0x00,
0x00,0x00,0x00,0x00,0x00,0x00,0x00,0x00,0x00,0x01,0x00,0x02,0x08,0x20,0x00,
0x21,0x00,0x00,0x10,0x00,0x00,0x40,0x00,0x80,0x00,0x00,0x00,0x41,0x20,0x00,
0x00,0x00,0x00,0x00,0x00,0x00,0x00,0x00,0x00,0x00,0x80,0x00,0x00,0x80,0x00,
0x00,0x22,0x00,0x20,0x04,0x02,0x88,0x08,0x04,0x00,0x00,0x40,0x00,0x10,0x00,
0x40,0x01,0x00,0x00,0x00,0x00,0x00,0x00,0x00,0x00,0x00,0x00,0x40,0x01,0x01,
0x00,0x00,0x04,0x00,0x00,0x04,0x00,0x00,0x00,0x80,0x00,0x00,0x10,0x00,0x00,
0x00,0x00,0x00,0x05,0x00,0x00,0x00,0x00,0x00,0x00,0x00,0x00,0x00,0x00,0x20,
0x40,0x20,0x10,0x00,0x00,0x00,0x00,0x01,0x00,0x00,0x00,0x00,0x00,0x44,0x04,
0x00,0x20,0x02,0x00,0x02,0x02,0x00,0x00,0x00,0x00,0x00,0x00,0x00,0x00,0x00,
0x00,0x50,0x10,0x00,0x02,0x40,0x00,0x00,0x44,0x00,0x40,0x00,0x02,0x00,0x80,
0x00,0x00,0x10,0x08,0x00,0x24,0x00,0x14,0x00,0x00,0x00,0x00,0x00,0x00,0x00,
0x00,0x00,0x00,0x08,0x00,0x00,0x00,0x12,0x40,0x84,0x00,0x00,0x11,0x10,0x40,
0x04,0x20,0x00,0x00,0x02,0x02,0x40,0x00,0x20,0x08,0x00,0x00,0x00,0x00,0x00,
0x00,0x00,0x00,0x00,0x00,0x14,0x00,0x00,0x00,0x00,0x08,0x00,0x00,0x00,0x00,
0x04,0x00,0x40,0x08,0x00,0x00,0x00,0x00,0x10,0x00,0x00,0x50,0x00,0x00,0x00,
0x00,0x00,0x00,0x00,0x00,0x00,0x00,0x02,0x00,0x88,0x80,0x00,0x00,0x00,0x00,
0x20,0x00,0x00,0x10,0x00,0x00,0x40,0x40,0x00,0x00,0x04,0x00,0x04,0x22,0x00,
0x00,0x00,0x00,0x00,0x00,0x00,0x00,0x00,0x00,0x05,0x04,0x02,0x20,0x00,0x00,
0x20,0x00,0x08,0x00,0x00,0x01,0x00,0x00,0x10,0x04,0x80,0x00,0x01,0x80,0x00,
0x40,0x01,0x00,0x00,0x00,0x00,0x00,0x00,0x00,0x00,0x80,0x00,0x80,0x00,0x00,
0x00,0x01,0x01,0x48,0x00,0x08,0x00,0x00,0x08,0x02,0x04,0x00,0x20,0x40,0x00,
0x04,0x80,0x80,0x00,0x00,0x00,0x00,0x00,0x00,0x00,0x00,0x00,0x40,0x01,0x00,
0x00,0x08,0x40,0x20,0x00,0x02,0x00,0x82,0x20,0x00,0x01,0x00,0x01,0x00,0x04,
0x10,0x00,0x00,0x00,0x00,0x05,0x00,0x00,0x00,0x00,0x00,0x00,0x00,0x00,0x40,
0x80,0x20,0x00,0x01,0x08,0x00,0x00,0x00,0x00,0x00,0x08,0x40,0x00,0x40,0x00,
0x40,0x00,0x00,0x00,0x41,0x20,0x00,0x02,0x00,0x00,0x00,0x00,0x00,0x00,0x00,
0x00,0x20,0x00,0x08,0x40,0x00,0x00,0x00,0x88,0x00,0x82,0x00,0x00,0x04,0x80,
0x00,0x00,0x04,0x00,0x00,0x40,0x00,0x08,0x10,0x04,0x00,0x00,0x00,0x00,0x00,
0x00,0x00,0x00,0x10,0x00,0x00,0x10,0x00,0x02,0x00,0x00,0x00,0x20,0x00,0x00,
0x00,0x00,0x10,0x00,0x01,0x00,0x02,0x10,0x00,0x00,0x00,0x08,0x00,0x00,0x00,
0x00,0x00,0x00,0x00,0x00,0x08,0x10,0x00,0x00,0x80,0x00,0x44,0x00,0x80,0x00,
0x80,0x00,0x00,0x10,0x00,0x40,0x00,0x10,0x00,0x04,0x00,0x00,0x04,0x29,0x00,
0x00,0x00,0x00,0x00,0x00,0x00,0x00,0x14,0x00,0x02,0x02,0x20,0x00,0x01,0x00,
0x20,0x00,0x20,0x80,0x00,0x04,0x00,0x10,0x00,0x01,0x40,0x00,0x10,0x01,0x00,
0x40,0x00,0x00,0x00,0x00,0x00,0x00,0x00,0x00,0x04,0x02,0x00,0x00,0x08,0x40,
0x00,0x44,0x08,0x00,0x08,0x08,0x10,0x01,0x02,0x04,0x40,0x00,0x10,0x00,0x00,
0x80,0x00,0x10,0x00,0x00,0x00,0x00,0x00,0x00,0x00,0x00,0x02,0x00,0x40,0x00,
0x00,0x00,0x00,0x00,0x00,0x00,0x00,0x00,0x00,0x00,0x80,0x00,0x00,0x80,0x00,
0x00,0x04,0x10,0x00,0xa0,0x00,0x00,0x00,0x00,0x00,0x00,0x00,0x00,0x01,0x40,
0x00,0x40,0x00,0x00,0x80,0x00,0x00,0x48,0x00,0x00,0x04,0x00,0x20,0x00,0x10,
0x20,0x00,0x00,0x01,0x00,0x20,0x42,0x00,0x00,0x00,0x00,0x00,0x00,0x00,0x80,
0x82,0x00,0x08,0x10,0x00,0x08,0x20,0x00,0x02,0x00,0x00,0x80,0x00,0x80,0x00,
0x00,0x04,0x08,0x00,0x22,0x00,0x01,0x00,0x80,0x02,0x00,0x00,0x00,0x00,0x00,
0x00,0x80,0x00,0x10,0x00,0x04,0x04,0x02,0x08,0x20,0x00,0x01,0x04,0x11,0x00,
0x20,0x00,0x00,0x01,0x00,0x08,0x00,0x00,0x00,0x04,0x00,0x01,0x00,0x00,0x00,
0x00,0x00,0x00,0x40,0x00,0x00,0x00,0x01,0x80,0x50,0xa3,0x4a,0x55,0xaa,0x52,
0x4a,0xd5,0x96,0xaa,0x6a,0x54,0x55,0x25,0x00,0x40,0x40,0x00,0x00,0x02,0x00,
0x00,0x00,0x00,0x00,0x00,0x20,0x20,0x00,0x02,0x00,0x00,0xa4,0x14,0x95,0xa8,
0x24,0x55,0x91,0x28,0x49,0x4a,0x8a,0x22,0x89,0x54,0x00,0x00,0x10,0x80,0x08,
0x09,0x00,0x00,0x00,0x00,0x00,0x00,0x20,0x00,0x04,0x40,0x00,0x20,0x09,0x00,
0x00,0x02,0x00,0x00,0x04,0x00,0x00,0x00,0x00,0x08,0x00,0x80,0x22,0x04,0x00,
0x00,0x00,0x02,0x00,0x00,0x00,0x00,0x00,0x00,0x10,0x04,0x00,0x00,0x00,0x01,
0x02,0x44,0x20,0x00,0x91,0x00,0x20,0x02,0x10,0x91,0x90,0x00,0x91,0x20,0x01,
0x00,0x04,0x10,0x00,0x14,0x00,0x00,0x00,0x00,0x00,0x00,0x08,0x01,0x40,0x10,
0x40,0x40,0x20,0x01,0x09,0x48,0x00,0x24,0x01,0x48,0x05,0x00,0x04,0x20,0x84,
0x0b,0x04,0x80,0x00,0x04,0x40,0x08,0x00,0x00,0x00,0x00,0x00,0x00,0x48,0x80,
0x00,0x04,0x10,0xa0,0x08,0x10,0x80,0x02,0x44,0x00,0x88,0x00,0x40,0x04,0x41,
0x0a,0x80,0x03,0x09,0x20,0x00,0x00,0x04,0x10,0x00,0x00,0x00,0x00,0x00,0x00,
0x04,0x00,0x10,0x00,0x04,0x40,0x00,0x00,0x00,0x00,0x00,0x40,0x00,0x00,0x00,
0x20,0x00,0x00,0xa1,0x42,0x04,0x01,0x80,0x00,0x01,0x20,0x00,0x00,0x00,0x00,
0x00,0x00,0x02,0x00,0x00,0x00,0x00,0x28,0x42,0x42,0x12,0x20,0x11,0x12,0x20,
0x92,0x10,0x00,0x10,0x00,0x80,0x03,0x08,0x00,0x00,0x00,0x00,0x50,0x00,0x00,
0x00,0x00,0x00,0x00,0x02,0x20,0x00,0x00,0x00,0x00,0x08,0x18,0x00,0x08,0x00,
0x00,0x02,0x00,0x04,0x09,0x02,0x20,0x88,0x22,0x12,0x00,0x10,0x00,0x00,0x81,
0x00,0x00,0x00,0x00,0x00,0x00,0x05,0x08,0x04,0x82,0x00,0x30,0x01,0x18,0x40,
0x02,0x80,0x00,0x00,0x00,0x00,0x80,0x80,0x04,0x82,0x03,0x08,0x08,0x02,0x10,
0x20,0x20,0x01,0x00,0x00,0x00,0x00,0x00,0x41,0x00,0x80,0x00,0x00,0x01,0x80,
0x18,0x02,0x00,0x22,0x88,0x48,0x12,0x41,0x00,0x20,0x80,0x80,0x81,0x10,0x82,
0x00,0x04,0x08,0x40,0x00,0x00,0x00,0x00,0x00,0x80,0x00,0x00,0x00,0x20,0x08,
0x50,0x10,0x18,0x10,0x40,0x00,0x00,0x00,0x00,0x00,0x24,0x00,0x00,0xff,0xfe,
0x09,0x00,0x00,0x01,0x01,0x80,0x02,0x00,0x00,0x00,0x00,0x80,0x00,0x00,0x00,
0x00,0x00,0x10,0x02,0x18,0x00,0x11,0x00,0x02,0x00,0x00,0x08,0x00,0x04,0x24,
0xb5,0x6f,0x11,0x00,0x00,0x00,0x00,0x08,0x01,0x00,0x00,0x00,0x00,0x40,0x00,
0x82,0x08,0x00,0x80,0x20,0x00,0x89,0x04,0x00,0x24,0x20,0x89,0x48,0x82,0x00,
0x81,0x00,0xdf,0xba,0x09,0x00,0x40,0x00,0x00,0x00,0x04,0x00,0x00,0x00,0x00,
0x40,0x10,0x20,0x00,0x04,0x00,0x10,0x11,0x18,0x40,0x00,0x01,0x00,0x00,0x00,
0x00,0x08,0x20,0x00,0x80,0x03,0x10,0x20,0x10,0x00,0x00,0x01,0x01,0x00,0x00,
0x00,0x00,0x20,0x00,0x00,0x40,0x00,0x11,0x20,0x00,0x1c,0x00,0x44,0x00,0x09,
0x00,0x02,0x20,0x40,0x00,0x08,0x80,0x02,0x02,0x02,0x04,0x40,0x08,0x00,0x0a,
0x00,0x00,0x00,0x00,0x20,0x00,0x00,0x00,0x40,0x00,0x10,0x42,0x16,0x02,0x00,
0x20,0x80,0x48,0x40,0x08,0x02,0x08,0x82,0x80,0x83,0x08,0x00,0x00,0x10,0x00,
0x00,0x04,0x00,0x00,0x00,0x00,0x10,0x84,0x08,0x08,0x00,0x00,0x22,0x00,0x3f,
0x90,0x10,0x08,0x00,0x00,0x10,0x02,0x00,0x02,0x00,0x88,0x21,0x48,0x00,0x01,
0x00,0x00,0x10,0x08,0x00,0x00,0x00,0x00,0x10,0x00,0x00,0x02,0x04,0x00,0x10,
0x11,0x2b,0x00,0x04,0x02,0x04,0x02,0x04,0x00,0x48,0x40,0x20,0x80,0x03,0x10,
0x20,0x00,0x02,0x40,0x04,0x04,0x00,0x00,0x00,0x00,0x08,0x00,0x00,0x00,0x00,
0x20,0x20,0x00,0x1e,0x02,0x00,0x00,0x21,0x20,0x01,0x40,0x02,0x00,0x08,0x82,
0x01,0x09,0x08,0x00,0x00,0x02,0x00,0x11,0x00,0x00,0x00,0x00,0x08,0x01,0x40,
0x00,0x01,0x04,0x10,0x02,0x04,0x20,0x40,0x40,0x00,0x00,0x80,0x10,0x00,0x08,
0x01,0xa0,0x13,0x10,0x00,0x40,0x00,0x00,0x00,0x28,0x00,0x00,0x00,0x00,0x14,
0x20,0x02,0x00,0x40,0x00,0x20,0x20,0x80,0x00,0x11,0x08,0x40,0x02,0x20,0x04,
0x80,0x00,0x00,0x00,0x80,0x04,0x00,0x10,0x40,0x20,0x00,0x40,0x00,0x00,0x00,
0x00,0x04,0x00,0x00,0x20,0x00,0x00,0x12,0x01,0x20,0x08,0x00,0x02,0x88,0x10,
0x04,0x00,0x08,0x20,0x20,0x09,0x00,0x08,0x02,0x04,0x10,0x00,0x20,0x10,0x00,
0x00,0x00,0x00,0x08,0x00,0x00,0x04,0x00,0x80,0x20,0x88,0x04,0x00,0x04,0x00,
0x42,0x82,0x00,0x80,0x00,0x02,0x02,0x00,0x08,0x11,0x00,0x01,0x00,0x08,0x02,
0x50,0x00,0x00,0x00,0x00,0x05,0x04,0x10,0x01,0x08,0x04,0x10,0x02,0x00,0x42,
0x80,0x40,0x80,0x04,0x80,0x10,0x20,0x80,0x00,0x80,0x40,0x08,0x40,0x00,0x04,
0x00,0x00,0x84,0x00,0x00,0x00,0x00,0x02,0x40,0x04,0x00,0x02,0x01,0x20,0x00,
0x80,0x00,0x20,0x10,0x40,0x09,0x08,0x04,0x02,0x08,0x90,0x08,0x00,0x10,0x10,
0x00,0x00,0x00,0x00,0x21,0x00,0x00,0x00,0x00,0x01,0x01,0x00,0x00,0x00,0x00,
0x10,0x41,0x24,0x10,0x09,0x04,0x88,0x52,0x02,0x00,0x80,0x00,0x00,0x00,0x12,
0x0a,0x01,0x00,0x01,0x02,0x10,0x40,0x01,0x00,0x00,0x00,0x02,0x00,0x00,0x80,
0x00,0x40,0x20,0x10,0x00,0x00,0x00,0x00,0x41,0x94,0x40,0x40,0x08,0x20,0x02,
0x20,0x00,0x10,0x00,0x40,0x80,0x40,0x04,0x80,0x00,0x00,0x00,0x80,0x40,0x00,
0x00,0x20,0x40,0x00,0x10,0x04,0x00,0x00,0x00,0x01,0x80,0x22,0x01,0x02,0x00,
0x02,0x20,0x09,0x80,0x08,0x00,0x10,0x00,0x00,0x00,0x40,0x00,0x00,0x00,0x00,
0x01,0x20,0x42,0x04,0x00,0x10,0x24,0x01,0x09,0x49,0x44,0x20,0x90,0x54,0x02,
0x10,0x22,0x80,0x00,0x00,0x11,0x10,0x00,0x04,0x00,0x00,0x00,0x80,0x02,0x00,
0x00,0x40,0x00,0x00,0x00,0x00,0x00,0x00,0x00,0x00,0x40,0x00,0x00,0x00,0x42,
0x49,0x95,0x00,0x00,0x08,0x08,0x00,0x00,0x09,0x88,0x00,0x10,0x00,0x00,0x01,
0x01,0x00,0x00,0x80,0x08,0x08,0x00,0x00,0x10,0x04,0x50,0x20,0x00,0x00,0x00,
0x84,0x00,0x92,0x28,0x80,0x80,0x00,0x80,0x10,0x04,0x10,0x02,0x00,0x00,0x88,
0x40,0x90,0x00,0x00,0x00,0x40,0x00,0x01,0x00,0x00,0x04,0x00,0x10,0x02,0x02,
0x88,0x24,0x00,0xc0,0x2a,0x05,0x04,0x08,0x20,0x21,0x84,0x40,0x0a,0x00,0x00,
0x00,0x01,0x08,0x00,0x02,0x00,0x00,0x80,0x00,0x00,0x44,0x84,0x00,0x00,0x21,
0x80,0x10,0x01,0x00,0x21,0x08,0x49,0x52,0x21,0x00,0x02,0x00,0x00,0x00,0x10,
0x00,0x00,0x01,0x00,0x00,0x00,0x05,0x00,0x00,0x20,0x40,0x00,0x01,0x00,0x00,
0x01,0x10,0x11,0x00,0x00,0x00,0x00,0x40,0x92,0x54,0x02,0x22,0x00,0x04,0x00,
0x08,0x08,0x00,0x44,0x10,0x00,0x00,0x00,0x00,0x00,0x00,0x40,0x04,0x40,0x00,
0x00,0x00,0x20,0x20,0x00,0x00,0x90,0x44,0x08,0x41,0xa5,0x92,0x04,0x00,0x48,
0x80,0x10,0x81,0x02,0x20,0x01,0x00,0x40,0x00,0x04,0x05,0x00,0x00,0x20,0x00,
0x00,0x00,0x20,0x00,0x00,0x10,0x02,0x22,0x01,0x00,0x00,0x90,0x28,0x25,0x49,
0x80,0x00,0x10,0x04,0x00,0x88,0x08,0x00,0x00,0x02,0x84,0x00,0x02,0x00,0x00,
0x40,0x00,0x08,0x80,0x08,0x10,0x00,0x20,0x20,0x00,0x00,0x00,0x42,0x00,0x45,
0x48,0x15,0x12,0x00,0x02,0x00,0x10,0x08,0x00,0x00,0x80,0x00,0x00,0x40,0x04,
0x00,0x00,0x10,0x00,0x01,0x20,0x00,0x04,0x01,0x11,0x01,0x08,0x24,0x92,0x00,
0x44,0xa9,0x2a,0xa9,0x00,0x44,0x00,0x41,0x82,0x10,0x00,0x00,0x04,0x00,0x00,
0x00,0x04,0x00,0x00,0x20,0x11,0x00,0x08,0x00,0x00,0x10,0x20,0x88,0x80,0x00,
0x00,0x10,0x40,0x4a,0x49,0x22,0x01,0x01,0x20,0x00,0x00,0x0a,0x00,0x20,0x00,
0x20,0x20,0x00,0x0a,0x00,0x00,0x28,0x00,0x00,0x01,0x00,0x00,0x00,0x10,0x02,
0x00,0x00,0x00,0x00,0x81,0x14,0x92,0x54,0x12,0x00,0x04,0x08,0x10,0x10,0x02,
0x04,0x00,0x00,0x02,0x08,0x10,0x00,0x00,0x00,0x00,0x40,0x00,0x80,0x00,0x00,
0x20,0x00,0x12,0x48,0x22,0x04,0x50,0xa1,0xaa,0x8a,0x0a,0x90,0x00,0x82,0x80,
0x08,0x40,0x00,0x10,0x04,0x00,0x02,0x04,0x00,0x00,0x28,0x00,0x11,0x00,0x04,
0x20,0x02,0x91,0x20,0x00,0x01,0x00,0x41,0x00,0xaa,0x44,0x52,0x92,0x00,0x40,
0x00,0x04,0x10,0x00,0x00,0x01,0x01,0x00,0x00,0x14,0x00,0x00,0x10,0x08,0x00,
0x00,0x01,0x08,0x40,0x20,0x08,0x40,0x00,0x08,0x00,0x44,0x15,0xa9,0xa4,0x04,
0x04,0x08,0x20,0x00,0x09,0x10,0x00,0x00,0x00,0x10,0x80,0x08,0x00,0x00,0x08,
0x00,0x00,0x40,0x00,0x02,0x00,0x10,0x02,0x11,0x20,0x02,0x00,0x40,0xa2,0x12,
0x49,0x11,0x40,0x02,0x08,0x20,0x10,0x04,0x08,0x00,0x40,0x04,0x00,0x10,0x00,
0x00,0x10,0x02,0x00,0x10,0x40,0x00,0x00,0x20,0x00,0x00,0x08,0x40,0x24,0x81,
0x54,0xa4,0x2a,0x02,0x01,0x80,0x00,0x09,0x0a,0x00,0x02,0x08,0x00,0x00,0x21,
0x08,0x00,0x00,0x04,0x80,0x08,0x04,0x00,0x00,0x04,0x10,0x41,0x00,0x02,0x00,
0x00,0x50,0x89,0x2a,0x91,0x40,0x10,0x20,0x00,0x00,0x10,0x00,0x80,0x80,0x00,
0x00,0x00,0x10,0x00,0x00,0x08,0x00,0x00,0x01,0x00,0x00,0x01,0x21,0x10,0x44,
0x80,0x08,0x00,0x00,0x52,0x49,0x2a,0x00,0x00,0x08,0x44,0x80,0x08,0x00,0x00,
0x00,0x08,0x00,0x00,0x28,0x00,0x00,0x88,0x00,0x00,0x00,0x10,0x40,0x40,0x10,
0x04,0x00,0x00,0x80,0x44,0x44,0x95,0x92,0x02,0x04,0x84,0x00,0x00,0x10,0x10,
0x42,0x00,0x00,0x00,0x41,0x00,0x00,0x00,0x00,0x04,0x10,0x00,0x00,0x04,0x08,
0x00,0x20,0x01,0x10,0x08,0x02,0x00,0x80,0x24,0xa4,0x14,0x21,0x00,0x00,0x01,
0x02,0x09,0x00,0x20,0x10,0x00,0x10,0x08,0x51,0x00,0x00,0x04,0x00,0x11,0x00,
0x01,0x02,0x00,0x10,0x80,0x04,0x41,0x20,0x10,0x20,0x49,0x15,0x01,0x00,0x21,
0x22,0x90,0x00,0x10,0x00,0x04,0x04,0x40,0x00,0x00,0x10,0x00,0x00,0x08,0x00,
0x00,0x40,0x00,0x00,0x00,0x20,0x20,0x00,0x00,0x00,0x02,0x49,0xaa,0xa4,0x00,
0x00,0x00,0x00,0x00,0x20,0x0a,0x10,0x00,0x00,0x11,0x00,0x00,0x20,0x00,0x00,
0x82,0x00,0x00,0x11,0x00,0x00,0x08,0x10,0x09,0x00,0x10,0x04,0x00,0x80,0x12,
0x29,0x90,0x08,0x08,0x08,0x02,0x08,0x10,0x04,0x00,0x00,0x00,0x00,0x20,0x50,
0x00,0x00,0x24,0x08,0x00,0x00,0x80,0x00,0x82,0x24,0x00,0x90,0x04,0x41,0x20,
0x40,0xa4,0x12,0x02,0x40,0x82,0x80,0x20,0x82,0x08,0x00,0x00,0x01,0x00,0x08,
0x01,0x04,0x00,0x00,0x04,0x80,0x08,0x00,0x00,0x40,0x00,0x00,0x01,0x01,0x00,
0x00,0x04,0x82,0x4a,0x0a,0x00,0x00,0x00,0x00,0x00,0x00,0x10,0x00,0x21,0x00,
0x00,0x00,0x00,0x50,0x00,0x00,0x04,0x00,0x00,0x00,0x10,0x10,0x00,0x50,0x20,
0x00,0x00,0x10,0x01,0x20,0x91,0x04,0x20,0x12,0x00,0x12,0x08,0x00,0x09,0x00,
0x00,0x20,0x02,0x01,0x10,0x20,0x00,0x00,0x04,0x00,0x80,0x04,0x04,0x00,0x00,
0x20,0x08,0x24,0x22,0x01,0x40,0x48,0xaa,0x80,0x04,0x00,0x22,0x00,0x82,0x48,
0x10,0x42,0x00,0x00,0x20,0x00,0x04,0x11,0x00,0x00,0x01,0x22,0x00,0x40,0x00,
0x02,0x40,0x10,0x02,0x00,0x00,0x00,0x10,0x80,0x12,0x00,0x00,0x80,0x00,0x80,
0x00,0x00,0x04,0x00,0x08,0x08,0x00,0x20,0x00,0x40,0x00,0x00,0x22,0x00,0x04,
0x00,0x00,0x00,0x10,0x20,0x00,0x01,0x00,0x48,0x04,0x42,0x24,0x11,0x40,0x22,
0x80,0x04,0x00,0x02,0x09,0x00,0x00,0x02,0x00,0x00,0x00,0xa0,0x00,0x00,0x04,
0x00,0x00,0x00,0x00,0x00,0x02,0x88,0x40,0x20,0x49,0x02,0x00,0x80,0x0a,0x80,
0x08,0x00,0x08,0x20,0x90,0x40,0x10,0x08,0x80,0x00,0x02,0x08,0x00,0x40,0x00,
0x00,0x01,0x00,0x40,0x10,0x40,0x20,0x00,0x10,0x08,0x08,0x00,0x00,0x80,0x20,
0x01,0x04,0x00,0x08,0x00,0x00,0x04,0x10,0x08,0x01,0x01,0x00,0x40,0x00,0x41,
0x20,0x00,0x00,0x02,0x42,0x10,0x04,0x02,0x08,0x00,0x20,0x01,0x00,0x00,0x80,
0x08,0x48,0x22,0x01,0x42,0x00,0x21,0x01,0x01,0x00,0x12,0x00,0x00,0x80,0x00,
0x00,0x10,0x44,0x00,0x00,0x12,0x00,0x04,0x00,0x00,0x00,0x00,0x11,0x00,0x01,
0x11,0x11,0x00,0x80,0x00,0x20,0x00,0x42,0x00,0x48,0x00,0x02,0x00,0x00,0x10,
0x00,0x00,0x00,0x00,0xa0,0x00,0x00,0x02,0x00,0x00,0x00,0x20,0x00,0x10,0x20,
0x22,0x20,0x00,0x00,0x42,0x42,0x00,0x00,0x10,0x00,0x08,0x00,0x20,0x40,0x14,
0x40,0x00,0x10,0x10,0x22,0x00,0x00,0x00,0x00,0x02,0x10,0x00,0x00,0x08,0x02,
0x01,0x10,0x00,0x08,0x40,0x80,0x00,0x00,0x48,0x08,0x01,0x10,0x80,0x00,0x08,
0x08,0x11,0x08,0x00,0x01,0x00,0x00,0x04,0xa0,0x00,0x00,0x82,0x00,0x00,0x40,
0x00,0x00,0x00,0x20,0x01,0x01,0x12,0x24,0x10,0x00,0x00,0x02,0x80,0x04,0x02,
0x84,0x00,0x01,0x08,0x02,0x00,0x00,0x04,0x00,0x00,0x22,0x00,0x00,0x02,0x00,
0x81,0x04,0x00,0x40,0x00,0x12,0x48,0x80,0x00,0x00,0x00,0x89,0x00,0x40,0x24,
0x80,0x20,0x20,0x00,0x00,0x10,0x00,0x44,0x00,0x01,0x00,0x80,0x40,0x00,0x00,
0x05,0x08,0x10,0x00,0x00,0x00,0x20,0x20,0x02,0x20,0x00,0x00,0x04,0x00,0x44,
0x00,0x00,0x00,0x00,0x00,0x48,0x90,0x04,0x00,0x00,0x20,0x80,0x88,0x00,0xa0,
0x00,0x00,0x00,0x02,0x00,0x00,0x82,0x08,0x08,0x10,0x00,0x08,0x40,0x22,0x40,
0x20,0x00,0x08,0x00,0x10,0x08,0x01,0x02,0x04,0x08,0x80,0x00,0x08,0x00,0x00,
0x10,0x00,0x00,0x00,0x45,0x00,0x00,0x80,0x20,0x00,0x00,0x20,0x01,0x01,0x04,
0x00,0x01,0x08,0x10,0x82,0x84,0x04,0x02,0x88,0x00,0x00,0x11,0x01,0x00,0x00,
0x00,0x00,0x00,0x60,0x00,0x00,0x02,0x00,0x01,0x10,0x00,0x00,0x00,0x10,0x10,
0x00,0x01,0x08,0x10,0x02,0x01,0x00,0x20,0x80,0x00,0x00,0x80,0x40,0x08,0x20,
0x10,0x02,0x20,0x00,0x04,0x80,0x00,0x00,0x04,0x40,0x20,0x02,0x00,0x80,0x00,
0x21,0x04,0x20,0x20,0x01,0x00,0x00,0x80,0x20,0x00,0x00,0x20,0x21,0x10,0x10,
0x10,0x00,0x00,0x00,0x08,0x44,0x00,0x22,0x00,0x00,0x01,0x00,0x00,0x00,0x00,
0x20,0x40,0x10,0x81,0x04,0x00,0x40,0x84,0x40,0x08,0x00,0x04,0x10,0x00,0x00,
0x04,0x04,0x0a,0x00,0x00,0x00,0x02,0x00,0x80,0xa0,0x00,0x00,0x02,0x02,0x00,
0x00,0x08,0x02,0x08,0x20,0x00,0x00,0x04,0x10,0x00,0x10,0x00,0x04,0x81,0x04,
0x02,0x04,0x01,0x01,0x10,0x04,0x82,0x80,0x00,0x00,0x00,0x40,0x00,0x00,0x22,
0x00,0x08,0x00,0x02,0x00,0x00,0x10,0x20,0x40,0x40,0x04,0x20,0x04,0x22,0x41,
0x20,0x80,0x10,0x41,0x00,0x80,0x08,0x80,0x20,0x20,0x00,0x00,0x10,0x20,0x00,
0x00,0x04,0x20,0x00,0x21,0x80,0x00,0x00,0x20,0x09,0x12,0x10,0x00,0x09,0x00,
0x00,0x00,0x00,0x00,0x00,0x00,0x20,0x20,0x10,0x00,0x00,0x00,0x00,0x11,0x01,
0x40,0x00,0x00,0x01,0x00,0x00,0x00,0x00,0x00,0x02,0x10,0x00,0x00,0x02,0x00,
0x00,0x01,0x00,0x10,0x08,0x10,0x40,0x10,0x08,0x04,0x0a,0x10,0x00,0x08,0x00,
0x00,0x00,0xa0,0x00,0x00,0x02,0x02,0x02,0x00,0x00,0x10,0x80,0x20,0x82,0x00,
0x00,0x11,0x00,0x20,0x89,0x00,0x02,0x01,0x02,0x00,0x02,0x01,0x10,0x02,0x00,
0x00,0x20,0x00,0x00,0x42,0x00,0x00,0x12,0x00,0x40,0x00,0x20,0x00,0x20,0x50,
0x10,0x40,0x40,0x80,0x08,0x08,0x00,0x84,0x00,0x40,0x10,0x82,0x00,0x20,0x05,
0x00,0x08,0x00,0x08,0x00,0x20,0x20,0x00,0x00,0x04,0x40,0x00,0x88,0x04,0x00,
0x01,0x00,0x04,0x04,0x04,0x00,0x40,0x02,0x00,0x00,0x40,0x04,0x00,0x20,0x40,
0x00,0x08,0x00,0x02,0x01,0x02,0x44,0x04,0x10,0x00,0x00,0x04,0x10,0x00,0x00,
0x00,0x04,0x00,0x60,0x81,0x10,0x21,0x12,0x01,0x80,0x24,0x11,0x08,0x20,0x42,
0x08,0x10,0x44,0x02,0x80,0x00,0x40,0x00,0x00,0x00,0x20,0x00,0x00,0x0a,0x01,
0x08,0x02,0x00,0x00,0x00,0x04,0x20,0x00,0x00,0x40,0x88,0x10,0x00,0x80,0x80,
0x08,0x10,0x02,0x01,0x11,0x84,0x10,0x00,0x10,0x00,0x00,0x00,0x50,0x00,0x00,
0x00,0x00,0x80,0x00,0x00,0x41,0x10,0x80,0x02,0x22,0x92,0x08,0x20,0x04,0x91,
0x24,0x12,0x82,0x04,0x40,0x08,0x80,0x02,0x00,0x00,0x00,0x00,0x01,0x00,0x21,
0x00,0x00,0x0a,0x00,0x00,0x80,0x40,0x00,0x00,0x00,0x15,0x08,0x00,0x00,0x09,
0x40,0x00,0x00,0x00,0x00,0x40,0x04,0x40,0x24,0x01,0x00,0x40,0x04,0x40,0x20,
0x44,0x10,0x00,0x00,0x04,0x80,0x00,0x20,0x10,0x00,0x04,0x01,0xc8,0x52,0x55,
0x55,0xa2,0x2a,0x55,0x55,0xd5,0xaa,0x2a,0xa9,0xaa,0x52,0x00,0x04,0x10,0x00,
0x10,0x00,0x00,0x20,0x00,0x00,0x08,0x09,0x08,0x00,0x00,0x00,0x00,0x00,0x10,
0x45,0x49,0xaa,0x94,0x44,0x2a,0x49,0x12,0xa9,0x44,0x95,0x0a,0x09,0x40,0x00,
0x02,0x00,0x02,0x00,0x00,0x50,0x00,0x00,0x02,0x00,0x00,0x00,0x00,0x10,0x01,
0x10,0x00,0x00,0x00,0x00,0x20,0xa9,0x44,0x92,0xa4,0x04,0x00,0x00,0x00,0x00,
0x00,0x40,0x00,0x00,0x00,0x00,0x01,0x20,0x00,0x00,0x08,0x00,0x80,0x08,0x04,
0x00,0x00,0x00,0x02,0x00,0x00,0x00,0x40,0x4a,0xa9,0x24,0x29,0x09,0x00,0x00,
0x00,0x00,0x10,0x00,0x00,0x20,0x00,0x08,0x00,0x14,0x00,0x00,0x14,0x00,0x01,
0x00,0x00,0x02,0x40,0x04,0x00,0x00,0x00,0x00,0x50,0x11,0x12,0x55,0x45,0x12,
0x00,0x00,0x40,0x00,0x02,0x08,0x00,0x09,0x00,0x02,0x10,0x21,0x00,0x00,0x80,
0x20,0x20,0x00,0x81,0x00,0x00,0x00,0x40,0x20,0x10,0x00,0x90,0xaa,0x4a,0x89,
0xa8,0x04,0x10,0x00,0x00,0x10,0x00,0x02,0x40,0x00,0x08,0x00,0x00,0x08,0x00,
0x00,0x14,0x08,0x00,0x00,0x00,0x80,0x10,0x80,0x00,0x04,0x04,0x01,0x21,0x24,
0x51,0x52,0x4a,0x15,0x04,0x21,0x08,0x04,0x00,0x00,0x04,0x00,0x02,0x80,0x00,
0x10,0x00,0x00,0x08,0x00,0x00,0x08,0x00,0x20,0x00,0x00,0x10,0x00,0x00,0x10,
0x50,0x49,0x8a,0xa4,0x12,0x02,0x00,0x00,0x02,0x00,0x00,0x00,0x01,0x00,0x80,
0x00,0x00,0x28,0x00,0x00,0x10,0x00,0x08,0x02,0x10,0x00,0x00,0x10,0x00,0x00,
0x00,0x00,0x80,0x92,0x54,0x09,0xa9,0x84,0x00,0x00,0x00,0x00,0x21,0x00,0x00,
0x00,0x00,0x20,0x48,0x04,0x00,0x00,0x20,0x00,0x02,0x80,0x00,0x00,0x00,0x01,
0x00,0x80,0x00,0x00,0x40,0xaa,0x22,0x52,0x92,0x22,0x00,0x08,0x00,0x01,0x00,
0x20,0x00,0x20,0x00,0x00,0x00,0x08,0x00,0x00,0x08,0x82,0x00,0x00,0x00,0x01,
0x44,0x00,0x02,0x21,0x40,0x04,0x01,0x1c,0x07,0xfc,0x07,0x00,0x40,0x00,0x00,
0x40,0x00,0x02,0x40,0x04,0x10,0x08,0x00,0x14,0x00,0x00,0x10,0x20,0x80,0x00,
0x00,0x10,0x00,0x00,0x40,0x00,0x10,0x00,0x00,0x14,0x05,0x6c,0x05,0x00,0x10,
0x80,0x20,0x00,0x10,0x00,0x10,0x00,0x02,0x02,0x00,0x00,0x00,0x00,0x50,0x00,
0x00,0x20,0x44,0x00,0x00,0x40,0x00,0x00,0x00,0x40,0x10,0x1c,0x07,0xdc,0x07,
0x00,0x00,0x00,0x08,0x10,0x00,0x00,0x02,0x00,0x00,0x00,0x02,0x16,0x00,0x00,
0x20,0x00,0x00,0x00,0x00,0x00,0x01,0x08,0x00,0x00,0x04,0x00,0x00,0x2c,0x05,
0x74,0x05,0x08,0x02,0x04,0x00,0x04,0x00,0x10,0x00,0x00,0x00,0x00,0x20,0x08,
0x00,0x00,0x40,0x08,0x20,0x08,0x00,0x00,0x20,0x00,0x08,0x08,0x01,0x10,0x00,
0x7c,0x07,0xdd,0x07,0x02,0x00,0x00,0x00,0x00,0x84,0x00,0x00,0x10,0x41,0x80,
0x00,0x02,0x00,0x00,0x10,0x00,0x08,0x00,0x00,0x44,0x00,0x00,0x00,0x02,0x00,
0x02,0x80,0x54,0x05,0x74,0x1d,0x80,0x00,0x41,0x00,0x00,0x00,0x00,0x00,0x01,
0x00,0x20,0x00,0x0a,0x00,0x00,0xa0,0x00,0x02,0x00,0x11,0x00,0x00,0x02,0x82,
0x00,0x00,0x00,0x04,0x7c,0x07,0xdc,0x17,0x00,0x40,0x00,0x84,0x00,0x01,0x40,
0x04,0x00,0x00,0x04,0x00,0x01,0x00,0x00,0x40,0x80,0x00,0x02,0x00,0x01,0x08,
0x80,0x00,0x00,0x40,0x00,0x00,0xd4,0x05,0x74,0x0d,0x00,0x10,0x00,0x00,0x40,
0x00,0x02,0x40,0x00,0x08,0x00,0x10,0x02,0x00,0x00,0x80,0x20,0x00,0x00,0x00,
0x00,0x00,0x20,0x00,0x40,0x10,0x00,0x01,0x5c,0x07,0xdc,0x07,0x02,0x00,0x00,
0x00,0x08,0x20,0x00,0x00,0x20,0x00,0x01,0x00,0x05,0x00,0x00,0x20,0x08,0x00,
0x20,0x00,0x00,0x81,0x00,0x00,0x00,0x04,0x20,0x20,0x8c,0x85,0x7c,0x01,0x20,
0x04,0x10,0x21,0x00,0x00,0x20,0x00,0x08,0x02,0x00,0x04,0x02,0x00,0x00,0x80,
0x00,0x80,0x00,0x44,0x10,0x00,0x00,0x20,0x00,0x00,0x08,0x00,0x1c,0x07,0x14,
0x00,0x00,0x00,0x00,0x00,0x00,0x00,0x00,0x04,0x00,0x00,0x00,0x81,0x00,0x00,
0x00,0x40,0x01,0x20,0x00,0x00,0x00,0x00,0x00,0x00,0x02,0x00,0x00,0x00,0x14,
0x05,0x1c,0x80,0x00,0x00,0x04,0x00,0x02,0x08,0x04,0x00,0x01,0x40,0x20,0x00,
0x01,0x00,0x00,0x00,0x00,0x08,0x00,0x01,0x00,0x10,0x04,0x04,0x20,0x00,0x02,
0x00,0x01,0x02,0x00,0x20,0x00,0x01,0x01,0x00,0x00,0x01,0x01,0x40,0x00,0x00,
0x08,0x80,0x02,0x00,0x00,0x80,0x02,0x02,0x08,0x00,0x04,0x02,0x40,0x00,0x00,
0x82,0x00,0x44,0x00,0x00,0x00,0x08,0x10,0x40,0x00,0x11,0x40,0x00,0x80,0x00,
0x80,0x10,0x00,0x40,0x00,0x00,0x00,0x00,0x41,0x00,0x00,0x80,0x80,0x00,0x00,
0x00,0x00,0x00,0x00,0x01,0x00,0x80,0x00,0x00,0x00,0x00,0x00,0x00,0x10,0x00,
0x00,0x10,0x20,0x00,0x00,0x80,0x00,0x00,0x00,0x00,0x02,0x00,0x00,0x10,0x00,
0x80,0x00,0x40,0x04,0x20,0x00,0x00,0x00,0x00,0x00,0x01,0x00,0x08,0x40,0x00,
0x01,0x40,0x00,0x00,0x00,0x00,0x00,0xa8,0x00,0x00,0x00,0x00,0x05,0x00,0x42,
0x04,0x00,0x00,0x08,0x04,0x80,0x00,0x20,0x00,0x20,0x10,0x20,0x00,0x04,0x02,
0x00,0x00,0x00,0x00,0x10,0x04,0x08,0x00,0x81,0x40,0x00,0x00,0x00,0x00,0x00,
0x80,0x00,0x00,0x20,0x00,0x00,0x01,0x00,0x00,0x00,0x00,0x08,0x04,0x08,0x00,
0x81,0x00,0x08,0x10,0x00,0x08,0x00,0x00,0x02,0x04,0x10,0x80,0x00,0x00,0x00,
0x00,0x8a,0x10,0x00,0x00,0x08,0x10,0x00,0x00,0x20,0x08,0x04,0x10,0x01,0x00,
0x02,0x20,0x00,0x00,0x01,0x04,0x00,0x02,0x04,0x01,0x00,0x40,0x00,0x50,0x00,
0x00,0x00,0x00,0x04,0x00,0x00,0x00,0x02,0x04,0x02,0x80,0x08,0x00,0x00,0x04,
0x00,0x00,0x00,0x08,0x00,0x00,0x00,0x00,0x12,0x00,0x00,0x00,0x00,0x00,0x00,
0x10,0x00,0x00,0x00,0x00,0x14,0x00,0x20,0x82,0x00,0x00,0x40,0x20,0x00,0x00,
0x01,0x01,0x00,0x00,0x00,0x00,0x00,0x40,0x00,0x01,0x00,0x00,0x01,0x40,0x80,
0x00,0x00,0x24,0x00,0x00,0x00,0x00,0x08,0x00,0x08,0x20,0x00,0x00,0x00,0x00,
0x00,0x40,0x40,0x00,0x80,0x20,0x00,0x01,0x10,0x10,0x40,0x00,0x00,0x40,0x00,
0x00,0x00,0x10,0x84,0x10,0x00,0x00,0x00,0x00,0x10,0x22,0x00,0x00,0x00,0x81,
0x00,0x08,0x00,0x02,0x00,0x00,0x04,0x08,0x40,0x00,0x00,0x01,0x00,0x40,0x80,
0x00,0x40,0x08,0x04,0x00,0x00,0x28,0x00,0x00,0x00,0x00,0x08,0x00,0x02,0x00,
0x00,0x00,0x10,0x02,0x80,0x00,0x00,0x80,0x00,0x00,0x02,0x00,0x01,0x00,0x08,
0x00,0x20,0x08,0x00,0x00,0x00,0x04,0x00,0x04,0x00,0x00,0x00,0x00,0x10,0x00,
0x00,0x04,0x20,0x20,0x00,0x00,0x04,0x00,0x10,0x00,0x00,0x00,0x00,0x20,0x00,
0x00,0x00,0x00,0x04,0x00,0x10,0x00,0x41,0x00,0x21,0x08,0x00,0x00,0x00,0x00,
0xa0,0x00,0x00,0x01,0x08,0x00,0x00,0x00,0x00,0x20,0x04,0x10,0x40,0x00,0x00,
0x00,0x10,0x08,0x02,0x08,0x00,0x00,0x00,0x40,0x00,0x00,0x00,0x02,0x00,0x00,
0x00,0x00,0x20,0x10,0x40,0x00,0x01,0x04,0x80,0x80,0x00,0x00,0x00,0x04,0x10,
0x84,0x10,0x04,0x00,0x01,0x00,0x01,0x01,0x00,0x01,0x02,0x00,0x00,0x00,0x04,
0x00,0x00,0x00,0x00,0x40,0x00,0x01,0x40,0x00,0x00,0x22,0x00,0x20,0x04,0x00,
0x01,0x04,0x00,0x00,0x01,0x00,0x80,0x00,0x00,0x00,0x44,0x00,0x00,0x00,0x22,
0x00,0x05,0x00,0x00,0x00,0x00,0x40,0x00,0x00,0x00,0x00,0x00,0x00,0x10,0x00,
0x00,0x00,0x00,0x00,0x00,0x00,0x00,0x02,0x00,0x40,0x00,0x80,0x00,0x40,0x00,
0x10,0x00,0x44,0x02,0x00,0x00,0x00,0x00,0x80,0x04,0x10,0x00,0x00,0x41,0x00,
0x00,0x08,0x80,0x00,0x00,0x01,0x20,0x00,0x80,0x40,0x00,0x00,0x20,0x20,0x00,
0x10,0x10,0x04,0x00,0x00,0x01,0x00,0x00,0x00,0x00,0x40,0x01,0x00,0x08,0x40,
0x00,0x00,0x00,0x02,0x00,0x48,0x00,0x00,0x02,0x44,0x20,0x00,0x10,0x10,0x00,
0x04,0x00,0x00,0x00,0x01,0x00,0x81,0x00,0x00,0x00,0x00,0x00,0x00,0x42,0x04,
0x02,0x08,0x00,0x08,0x02,0x00,0x11,0x00,0x20,0x80,0x00,0x00,0x00,0x00,0x04,
0x04,0x08,0x00,0x00,0x04,0x00,0x00,0x11,0x40,0x00,0x00,0x00,0x00,0x00,0x80,
0x04,0x00,0x00,0x01,0x10,0x80,0x40,0x00,0x00,0x00,0x08,0x00,0x00,0x00,0x08,
0x00,0x00,0x00,0x00,0x00,0x10,0x01,0x04,0x00,0x00,0xa0,0x00,0x00,0x00,0x00,
0x00,0x00,0x02,0x00,0x00,0x00,0x00,0x02,0x00,0x00,0x00,0x02,0x00,0x10,0x80,
0x00,0x00,0x10,0x01,0x01,0x02,0x01,0x04,0x00,0x00,0x00,0x00,0x80,0x00,0x00,
0x00,0x00,0x00,0x00,0x04,0x40,0x00,0x00,0x00,0x00,0x00,0x40,0x80,0x00,0x01,
0x04,0x20,0x88,0x00,0x04,0x00,0x00,0x00,0x80,0x00,0x00,0x41,0x20,0x00,0x54,
0x00,0x00,0x00,0x00,0x00,0x00,0x0a,0x02,0x10,0x00,0x01,0x00,0x10,0x08,0x08,
0x40,0x00,0x00,0x08,0x00,0x00,0x00,0x00,0x00,0x00,0x10,0x00,0x40,0x00,0x04,
0x22,0x20,0x00,0x00,0x00,0x00,0x00,0x00,0x10,0x00,0x04,0x11,0x10,0x41,0x00,
0x02,0x00,0x00,0x80,0x00,0x02,0x00,0x40,0x00,0x20,0x20,0x40,0x00,0x00,0x10,
0x00,0x00,0x00,0x08,0x00,0x00,0x00,0x00,0x00,0x00,0x24,0x00,0x00,0x00,0x00,
0x00,0x00,0x00,0x00,0x00,0x20,0x00,0x00,0x00,0x04,0x00,0x08,0x08,0x04,0x00,
0x40,0x04,0x00,0x00,0x00,0x14,0x00,0x00,0x00,0x00,0x00,0x00,0x10,0x10,0x01,
0x00,0x00,0x00,0x04,0x00,0x02,0x08,0x00,0x40,0x00,0x08,0x01,0x20,0x02,0x02,
0x00,0x00,0x10,0x00,0x10,0x01,0x00,0x01,0x00,0x00,0x00,0x00,0x00,0x00,0x20,
0x04,0x00,0x00,0x01,0x08,0x80,0x80,0x40,0x00,0x04,0x10,0x00,0x02,0x00,0x02,
0x00,0x00,0x00,0x22,0x02,0x00,0x00,0x40,0x44,0x04,0x00,0x00,0x00,0x00,0x00,
0x00,0x40,0x00,0x80,0x08,0x10,0x01,0x01,0x00,0x00,0x80,0x00,0x00,0x80,0x00,
0x80,0x00,0x00,0x00,0x81,0x00,0x00,0x00,0x04,0x10,0x00,0x0a,0x00,0x00,0x00,
0x00,0x00,0x00,0xa0,0x00,0x20,0x00,0x00,0x00,0x00,0x10,0x00,0x04,0x00,0x02,
0x08,0x00,0x20,0x00,0x00,0x00,0x20,0x00,0x00,0x00,0x01,0x00,0x00,0x01,0x00,
0x00,0x00,0x00,0x00,0x00,0x00,0x01,0x08,0x00,0x00,0x00,0x20,0x00,0x00,0x01,
0x80,0x00,0x00,0x40,0x08,0x40,0x40,0x00,0x00,0x00,0x00,0x11,0x00,0x01,0x80,
0x00,0x00,0x00,0x00,0x00,0x00,0x00,0x40,0x82,0x00,0x40,0x04,0x40,0x00,0x04,
0x08,0x00,0x20,0x00,0x01,0x00,0x00,0x00,0x04,0x44,0x00,0x40,0x20,0x00,0x00,
0x00,0x48,0x02,0x00,0x00,0x00,0x00,0x00,0x00,0x80,0x04,0x00,0x10,0x80,0x10,
0x00,0x00,0x02,0x40,0x08,0x40,0x00,0x00,0x00,0x10,0x00,0x00,0x08,0x10,0x04,
0x00,0x40,0x00,0x81,0x00,0x00,0x00,0x00,0x00,0x00,0x00,0x00,0x02,0x00,0x04,
0x00,0x00,0x08,0x80,0x00,0x00,0x00,0x00,0x20,0x22,0x00,0x00,0x00,0x00,0x00,
0x04,0x00,0x00,0x10,0x10,0xa0,0x00,0x00,0x00,0x00,0x00,0x00,0x00,0x00,0x04,
0x00,0x01,0x00,0x00,0x00,0x01,0x80,0x10,0x00,0x10,0x00,0x00,0x02,0x02,0x40,
0x00,0x00,0x01,0x00,0x88,0x00,0x00,0x10,0x00,0x00,0x00,0x00,0x00,0x00,0x00,
0x00,0x48,0x44,0x00,0x08,0x04,0x00,0x00,0x00,0x00,0x00,0x00,0x00,0x00,0x20,
0x00,0x02,0x88,0x40,0x00,0x00,0x02,0x00,0x00,0x28,0x00,0x00,0x00,0x00,0x00,
0x00,0x00,0x00,0x14,0x00,0x00,0x82,0x00,0x41,0x10,0x00,0x00,0x02,0x01,0x08,
0x00,0x00,0x80,0x00,0x00,0x08,0x00,0x88,0x00,0x00,0x04,0x01,0x00,0x00,0x00,
0x00,0x00,0x00,0x00,0x00,0x20,0x00,0x00,0x00,0x00,0x10,0x00,0x10,0x04,0x20,
0x00,0x02,0x11,0x00,0x20,0x00,0x02,0x00,0x00,0x01,0x00,0x04,0x01,0x14,0x00,
0x00,0x00,0x00,0x00,0x00,0x00,0x00,0x10,0x00,0x40,0x00,0x40,0x00,0x00,0x01,
0x01,0x00,0x80,0x00,0x00,0x01,0x02,0x20,0x00,0x00,0x40,0x00,0x00,0x41,0x00,
0x0a,0x00,0x00,0x00,0x00,0x00,0x00,0x00,0x00,0x40,0x22,0x10,0x00,0x00,0x00,
0x00,0x00,0x80,0x00,0x10,0x00,0x00,0x10,0x00,0x00,0x80,0x00,0x10,0x00,0x40,
0x00,0x40,0x04,0x00,0x00,0x00,0x00,0x00,0x00,0x00,0x00,0xa0,0x00,0x04,0x20,
0x08,0x00,0x44,0x00,0x00,0x00,0x04,0x00,0x00,0x00,0x00,0x00,0x20,0x10,0x02,
0x00,0x10,0x00,0x00,0x01,0x00,0x00,0x00,0x00,0x00,0x00,0x00,0x00,0x00,0x01,
0x00,0x08,0x02,0x08,0x00,0x20,0x00,0x08,0x01,0x40,0x44,0x00,0x01,0x04,0x04,
0x00,0x00,0x20,0x02,0x00,0x40,0x01,0x00,0x00,0x00,0x00,0x00,0x00,0x00,0x00,
0x80,0x02,0x00,0x00,0x00,0x02,0x01,0x08,0x10,0x00,0x00,0x10,0x00,0x00,0x20,
0x80,0x00,0x00,0x00,0x08,0x00,0x00,0x28,0x01,0x00,0x00,0x00,0x00,0x00,0x00,
0x00,0x00,0x00,0x14,0x01,0x02,0x00,0x00,0x00,0x00,0x04,0x02,0x00,0x04,0x00,
0x44,0x00,0x00,0x00,0x84,0x00,0x00,0x00,0x10,0x41,0x00,0x00,0x00,0x00,0x00,
0x00,0x00,0x00,0x00,0x00,0x02,0x80,0x00,0x80,0x00,0x00,0x01,0x00,0x00,0x80,
0x00,0x00,0x00,0x00,0x02,0x00,0x00,0x40,0x00,0x00,0x04,0x28,0x00,0x00,0x00,
0x00,0x00,0x00,0x00,0x00,0x00,0x00,0x18,0x20,0x00,0x20,0x00,0x10,0x00,0x00,
0x40,0x20,0x00,0x08,0x01,0x08,0x20,0x80,0x00,0x10,0x00,0x10,0x01,0x08,0x00,
0x00,0x00,0x00,0x00,0x00,0x00,0x00,0x00,0x00,0x20,0x08,0x80,0x08,0x40,0x04,
0x80,0x80,0x00,0x04,0x00,0x02,0x00,0x00,0x00,0x04,0x00,0x04,0x84,0x04,0x00,
0x12,0x00,0x00,0x00,0x00,0x00,0x00,0x00,0x00,0x00,0x00,0x50,0x01,0x20,0x00,
0x00,0x00,0x20,0x20,0x00,0x00,0x80,0x00,0x00,0x81,0x00,0x00,0x10,0x01,0x00,
0x00,0x00,0x05,0x00,0x00,0x00,0x00,0x00,0x00,0x00,0x00,0x00,0x00,0x40,0x00,
0x00,0x00,0x08,0x00,0x04,0x08,0x10,0x00,0x20,0x00,0x10,0x00,0x00,0x00,0x00,
0x00,0x00,0x00,0x80,0x00,0x00,0x00,0x00,0x00,0x00,0x00,0x00,0x00,0x00,0x00,
0x80,0x02,0x00,0x00,0x00,0x80,0x00,0x00,0x00,0x00,0x04,0x40,0x00,0x00,0x88,
0x20,0x02,0x00,0x20,0x00,0x20,0x01,0x00,0x00,0x00,0x00,0x00,0x00,0x00,0x00,
0x00,0x00,0x00,0x01,0x02,0x00,0x01,0x01,0x00,0x00,0x00,0x21,0x00,0x00,0x04,
0x10,0x00,0x08,0x00,0x00,0x01,0x80,0x48,0x01,0x00,0x00,0x00,0x00,0x00,0x00,
0x00,0x00,0x00,0x00,0x00,0x8a,0x00,0x11,0x00,0x10,0x00,0x00,0x04,0x00,0x00,
0x00,0x00,0x02,0x02,0x00,0x80,0x40,0x00,0x04,0x20,0x00,0x00,0x00,0x00,0x00,
0x00,0x00,0x00,0x00,0x00,0x00,0x00,0x14,0x20,0x00,0x40,0x00,0x80,0x00,0x01,
0x00,0x00,0x08,0x80,0x00,0x00,0x00,0x20,0x10,0x00,0x01,0x14,0x00,0x00,0x00,
0x00,0x00,0x00,0x00,0x00,0x00,0x00,0x00,0x00,0x20,0x00,0x00,0x10,0x00,0x08,
0x08,0x40,0x08,0x21,0x02,0x01,0x00,0x80,0x00,0x04,0x00,0x10,0x00,0x02,0x00,
0x00,0x00,0x00,0x00,0x00,0x00,0x00,0x00,0x00,0x00,0x00,0x50,0x00,0x00,0x02,
0x00,0x01,0x00,0x00,0x00,0x00,0x00,0x00,0x80,0x20,0x80,0x00,0x00,0x00,0x40,
0x05,0x00,0x00,0x00,0x00,0x00,0x00,0x00,0x00,0x00,0x00,0x00,0x00,0x80,0x02,
0x88,0x00,0x08,0x00,0x80,0x00,0x00,0x00,0x00,0x10,0x20,0x00,0x08,0x00,0x00,
0x00,0x00,0x04,0x00,0x00,0x00,0x00,0x00,0x00,0x00,0x00,0x00,0x00,0x00,0x00,
0x40,0x85,0x00,0x00,0x00,0x00,0x01,0x00,0x02,0x04,0x40,0x00,0x08,0x00,0x00,
0x00,0x02,0x02,0xa8,0x01,0x00,0x00,0x00,0x00,0x00,0x00,0x00,0x00,0x00,0x00,
0x00,0x00,0x00,0x08,0x00,0x00,0x02,0x20,0x20,0x10,0x40,0x80,0x00,0x00,0x01,
0x08,0x00,0x80,0x20,0x20,0x41,0x00,0x00,0x00,0x00,0x00,0x00,0x00,0x00,0x00,
0x00,0x00,0x00,0x00,0x00,0x12,0x00,0x80,0x80,0x08,0x00,0x00,0x00,0x00,0x08,
0x00,0x00,0x00,0x80,0x08,0x00,0x00,0x28,0x00,0x00,0x00,0x00,0x00,0x00,0x00,
0x00,0x00,0x00,0x00,0x00,0x00,0x00,0x24,0x08,0x10,0x00,0x00,0x00,0x00,0x00,
0x20,0x00,0x22,0x00,0x00,0x11,0x00,0x00,0x00,0x12,0x00,0x00,0x00,0x00,0x00,
0x00,0x00,0x00,0x00,0x00,0x00,0x00,0x00,0x00,0x50,0x81,0x00,0x00,0x00,0x08,
0x82,0x08,0x02,0x00,0x00,0x00,0x01,0x00,0x00,0x00,0x82,0x04,0x00,0x00,0x00,
0x00,0x00,0x00,0x00,0x00,0x00,0x00,0x00,0x00,0x00,0x00,0x80,0x02,0x00,0x20,
0x00,0x02,0x20,0x80,0x00,0x00,0x00,0x20,0x20,0x00,0x00,0x44,0x40,0x01,0x00,
0x00,0x00,0x00,0x00,0x00,0x00,0x00,0x00,0x00,0x00,0x00,0x00,0x00,0x00,0x09,
0x08,0x00,0x04,0x00,0x00,0x00,0x00,0x44,0x00,0x02,0x00,0x00,0x88,0x00,0x90,
0x00,0x00,0x00,0x00,0x00,0x00,0x00,0x00,0x00,0x00,0x00,0x00,0x00,0x00,0x00,
0x00,0x12,0x00,0x02,0x80,0x80,0x00,0x00,0x00,0x01,0x88,0x00,0x00,0x84,0x00,
0x00,0x54,0x00,0x00,0x00,0x00,0x00,0x00,0x00,0x00,0x00,0x00,0x00,0x00,0x00,
0x00,0x00,0x00,0x28,0x01,0x00,0x00,0x00,0x00,0x08,0x20,0x00,0x00,0x00,0x08,
0x00,0x00,0x00,0x22,0x00,0x00,0x00,0x00,0x00,0x00,0x00,0x00,0x00,0x00,0x00,
0x00,0x00,0x00,0x00,0x00,0xa0,0x80,0x40,0x20,0x00,0x08,0x02,0x08,0x00,0x02,
0x00,0x01,0x01,0x00,0x80,0x14,0x00,0x00,0x00,0x00,0x00,0x00,0x00,0x00,0x00,
0x00,0x00,0x00,0x00,0x00,0x00,0x00,0x40,0x22,0x00,0x04,0x10,0x80,0x80,0x00,
0x80,0x00,0x10,0x00,0x00,0x08,0x51,0x05,0x00,0x00,0x00,0x00,0x00,0x00,0x00,
0x00,0x00,0x00,0x00,0x00,0x00,0x00,0x00,0x00,0x00,0x15,0x10,0x00,0x00,0x02,
0x00,0x00,0x20,0x00,0x00,0x00,0x20,0x02,0x48,0x00,0x00,0x00,0x00,0x00,0x00,
0x00,0x00,0x00,0x00,0x00,0x00,0x00,0x00,0x00,0x00,0x00,0x00,0x48,0x00,0x00,
0x00,0x00,0x00,0x00,0x08,0x40,0x04,0x40,0x00,0x00,0x12,0x00,0x00,0x00,0x00,
0x00,0x00,0x00,0x00,0x00,0x00,0x00,0x00,0x00,0x00,0x00,0x00,0x00,0x00,0x90,
0x02,0x00,0x82,0x00,0x00,0x80,0x00,0x00,0x00,0x04,0x00,0x40,0x05,0x00,0x00,
0x00,0x00,0x00,0x00,0x00,0x00,0x00,0x00,0x00,0x00,0x00,0x00,0x00,0x00,0x00,
0x00,0x40,0x04,0x41,0x00,0x00,0x10,0x09,0x00,0x00,0x80,0x00,0x04,0x50,0x00,
0x00,0x00,0x00,0x00,0x00,0x00,0x00,0x00,0x00,0x00,0x00,0x00,0x00,0x00,0x00,
0x00,0x00,0x00,0x00,0x29,0x10,0x20,0x20,0x01,0x00,0x00,0x08,0x00,0x00,0x40,
0x8a,0x00,0x00,0x00,0x00,0x00,0x00,0x00,0x00,0x00,0x00,0x00,0x00,0x00,0x00,
0x00,0x00,0x00,0x00,0x00,0x00,0xaa,0x00,0x00,0x00,0x00,0x00,0x00,0x82,0x10,
0x80,0x00,0x55,0x00,0x00,0x00,0x00,0x00,0x00,0x00,0x00,0x00,0x00,0x00,0x00,
0x00,0x00,0x00,0x00,0x00,0x00,0x00,0x00,0x40,0x05,0x00,0x00,0x00,0x00,0x11,
0x00,0x00,0x20,0x50,0x02,0x00,0x00,0x00,0x00,0x00,0x00,0x00,0x00,0x00,0x00,
0x00,0x00,0x00,0x00,0x00,0x00,0x00,0x00,0x00,0x00,0x00,0xa9,0x08,0x04,0x20,
0x20,0x00,0x00,0x00,0x04,0x4a,0x01,0x00,0x00,0x00,0x00,0x00,0x00,0x00,0x00,
0x00,0x00,0x00,0x00,0x00,0x00,0x00,0x00,0x00,0x00,0x00,0x00,0x00,0x14,0x05,
0x00,0x02,0x02,0x00,0x00,0x04,0xa1,0x12,0x00,0x00,0x00,0x00,0x00,0x00,0x00,
0x00,0x00,0x00,0x00,0x00,0x00,0x00,0x00,0x00,0x00,0x00,0x00,0x00,0x00,0x00,
0xa0,0xa8,0x40,0x00,0x00,0x80,0x10,0x01,0x4a,0x04,0x00,0x00,0x00,0x00,0x00,
0x00,0x00,0x00,0x00,0x00,0x00,0x00,0x00,0x00,0x00,0x00,0x00,0x00,0x00,0x00,
0x00,0x00,0x00,0x52,0x15,0x00,0x00,0x08,0x00,0x50,0x91,0x00,0x00,0x00,0x00,
0x00,0x00,0x00,0x00,0x00,0x00,0x00,0x00,0x00,0x00,0x00,0x00,0x00,0x00,0x00,
0x00,0x00,0x00,0x00,0x00,0x08,0x49,0x15,0x10,0x02,0xa8,0xaa,0x14,0x00,0x00,
0x00,0x00,0x00,0x00,0x00,0x00,0x00,0x00,0x00,0x00,0x00,0x00,0x00,0x00,0x00,
0x00,0x00,0x00,0x00,0x00,0x00,0x00,0x00,0x92,0xa4,0xa5,0x54,0x25,0x11,0x00,
0x00,0x00,0x00,0x00,0x00,0x00,0x00,0x00,0x00,0x00,0x00,0x00,0x00,0x00,0x00,
0x00,0x00,0x00,0x00,0x00,0x00,0x00,0x00,0x00,0x00,0x20,0x29,0x4a,0x21,0x49,
0x02,0x00,0x00,0x00,0x00,0x00,0x00,0x00,0x00,0x00,0x00,0x00,0x00,0x00,0x00,
0x00,0x00,0x00,0x00,0x00,0x00,0x00,0x00,0x00,0x00,0x00,0x00,0x00,0x40,0x29,
0x4a,0x02,0x00,0x00,0x00,0x00,0x00,0x00,0x00,0x00,0x00,0x00,0x00,0x00,0x00,
0x00,0x00,0x00,0x00,0x00,0x00,0x00,0x00,0x00,0x00,0x00,0x00,0x00,0x00,0x00,
0x00,0x00,0x00,0x00,0x00,0x00,0x00,0x00,0x00,0x00,0x00,0x00,0x00,0x00,0x00,
0x00,0x00,0x00,0x00,0x00,0x00,0x00,0x00,0x00,0x00,0x00,0x00,0x00,0x00,0x00,
0x00,0x00,0x00,0x00,0x00,0x00,0x00,0x00,0x00,0x00,0x00,0x00,0x00,0x00,0x00,
0x00,0x00,0x00,0x00,0x00,0x00,0x00,0x00,0x00,0x00,0x00,0x00,0x00,0x00,0x00,
0x00,0x00,0x00,0x00,0x00,0x00,0x00,0x00,0x00,0x00,0x00,0x00,0x00,0x00,0x00,
0x00,0x00,0x00,0x00,0x00,0x00,0x00,0x00,0x00,0x00,0x00,0x00,0x00,0x00,0x00,
0x00,0x00,0x00,0x00,0x00,0x00,0x00,0x00,0x00,0x00,0x00,0x00,0x00,0x00,0x00,
0x00,0x00,0x00,0x00,0x00,0x00,0x00,0x00,0x00,0x00,0x00,0x00,0x00,0x00,0x00,
0x00,0x00,0x00,0x00,0x00,0x00,0x00,0x00,0x00,0x00,0x00,0x00,0x00,0x00,0x00,
0x00,0x00,0x00,0x00,0x00,0x00,0x00,0x00,0x00,0x00,0x00,0x00,0x00,0x00,0x00,
0x00,0x00,0x00,0x00,0x00,0x00,0x00,0x00,0x00,0x00,0x00,0x00,0x00,0x00,0x00,
0x00,0x00,0x00,0x00,0x00,0x00,0x00,0x00,0x00,0x00,0x00,0x00,0x00,0x00,0x00,
0x00,0x00,0x00,0x00,0x00,0x00,0x00,0x00,0x00,0x00,0x00,0x00,0x00,0x00,0x00,
0x00,0x00,0x00,0x00,0x00,0x00,0x00,0x00,0x00,0x00,0x00,0x00,0x00,0x00,0x00,
0x00,0x00,0x00,0x00,0x00,0x00,0x00,0x00,0x00,0x00,0x00,0x00,0x00,0x00,0x00,
0x00,0x00,0x00,0x00,0x00,0x00,0x00,0x00,0x00,0x00,0x00,0x00,0x00,0x00,0x00,
0x00,0x00
};
